modules/hawcons-stroke/icons/icon-13-three-fingers-double-tap.svg

<?xml version="1.0" encoding="UTF-8" standalone="no"?>
<svg width="32px" height="32px" viewBox="0 0 32 32" version="1.1" xmlns="http://www.w3.org/2000/svg" xmlns:xlink="http://www.w3.org/1999/xlink" xmlns:sketch="http://www.bohemiancoding.com/sketch/ns">
    <!-- Generator: Sketch 3.0.3 (7891) - http://www.bohemiancoding.com/sketch -->
    <title>icon 13 three fingers double tap</title>
    <desc>Created with Sketch.</desc>
    <defs></defs>
    <g id="Page-1" stroke="none" stroke-width="1" fill="none" fill-rule="evenodd" sketch:type="MSPage">
        <g id="icon-13-three-fingers-double-tap" sketch:type="MSArtboardGroup" fill="#929292">
            <path d="M20.0964406,4.02227599 C19.4632919,3.39057576 18.5894681,3 17.6244203,3 C16.5457226,3 15.5810001,3.48798583 14.9389673,4.25524304 C14.5330985,4.09065136 14.0893458,4 13.6244203,4 C12.657922,4 11.782922,4.39175082 11.1495466,5.02512623 L11.1501359,5.02545306 C10.5164142,5.65933044 10.1244203,6.53502325 10.1244203,7.50179827 L10.1244203,10.3286673 C9.49902039,9.55580421 9.12442034,8.57164839 9.12442034,7.5 C9.12442034,5.0147185 11.1391388,3 13.6244203,3 C13.9790723,3 14.324142,3.04102684 14.6551422,3.11859335 C15.4475078,2.42225039 16.4866531,2 17.6244203,2 C20.1097018,2 22.1244203,4.0147185 22.1244203,6.5 C22.1244203,7.57164839 21.7498203,8.55580421 21.1244203,9.32866727 L21.1244203,6.49129639 C21.1244203,5.52720048 20.7316853,4.65437555 20.0978171,4.02257501 L20.0964406,4.02227599 L20.0964406,4.02227599 Z M21.1244203,10.742838 C22.3459237,9.73404636 23.1244203,8.20793705 23.1244203,6.5 C23.1244203,3.46243373 20.6619866,1 17.6244203,1 C16.414628,1 15.2960658,1.39060218 14.3879666,2.05257356 C14.1384162,2.01791491 13.8835104,2 13.6244203,2 C10.5868541,2 8.12442034,4.46243373 8.12442034,7.5 C8.12442034,9.20793705 8.90291699,10.7340464 10.1244203,11.742838 L10.1244203,11.742838 L10.1244203,12.9781822 C8.32026393,11.823113 7.12442034,9.80120872 7.12442034,7.5 C7.12442034,3.91014895 10.0345693,1 13.6244203,1 C13.7940199,1 13.9621023,1.00649549 14.1284324,1.01925126 C15.1378999,0.374004566 16.3374834,0 17.6244203,0 C21.2142714,0 24.1244203,2.91014895 24.1244203,6.5 C24.1244203,8.80120872 22.9285767,10.823113 21.1244203,11.9781822 L21.1244203,10.742838 L21.1244203,10.742838 L21.1244203,10.742838 Z M28.1244203,23.5 C28.1244203,28.1944206 24.3188409,32 19.6244203,32.0000003 C16.5115051,32.0000003 13.2262274,30.5474856 10.9652407,26.4282229 C7.70175208,20.4825159 3.52827319,16.5832077 5.51553361,14.5959473 C6.9371827,13.1742982 9.16926196,14.5381668 11.1244203,16.3667868 L11.1244203,16.3667868 L11.1244203,7.50840855 C11.1244203,6.11541748 12.2437085,5 13.6244203,5 C14.2626699,5 14.8417708,5.23666852 15.281526,5.62673579 C15.6359965,4.67519131 16.5512398,4 17.6244203,4 C19.0147583,4 20.1244203,5.12083549 20.1244203,6.50345613 L20.1244203,13.5021366 C20.5422506,13.1873681 21.0616174,13 21.6244203,13 C23.0147583,13 24.1244203,14.1182256 24.1244203,15.4976267 L24.1244203,15.5110883 C24.5422506,15.1985158 25.0616174,15.014191 25.6244203,15.014191 C27.0147583,15.014191 28.1244203,16.1335355 28.1244203,17.5143168 L28.1244203,23.5 L28.1244203,23.5 Z M19.6244203,31 C15.8647052,30.9995418 13.6344162,28.9488875 11.8717958,25.9830936 C7.95978233,19.4007216 5.15828327,16.3887562 6.24545305,15.2957153 C7.35605012,14.1791206 10.0660207,16.5979243 12.1244203,18.7983451 L12.1244203,7.50524116 C12.1244203,6.66712976 12.7959932,6 13.6244203,6 C14.4586231,6 15.1244203,6.67391942 15.1244203,7.50524116 L15.1244203,18 L16.1244203,18 L16.1244203,6.49089813 C16.1244203,5.67622006 16.7959932,5 17.6244203,5 C18.4586231,5 19.1244203,5.66749783 19.1244203,6.49089813 L19.1244203,17 L20.1244203,17 L20.1244203,15.5064385 C20.1244203,14.6715406 20.7959932,14 21.6244203,14 C22.4586231,14 23.1244203,14.6744555 23.1244203,15.5064385 L23.1244203,18 L24.1244203,18 L24.1244203,17.5016756 C24.1244203,16.6711894 24.7959932,16 25.6244203,16 C26.4586231,16 27.1244203,16.6723231 27.1244203,17.5016756 L27.1244203,19.7491622 L27.1244203,23.5 C27.1244203,27.6421358 23.7665562,31 19.6244203,31 L19.6244203,31 Z" id="three-fingers-double-tap" sketch:type="MSShapeGroup"></path>
        </g>
    </g>
</svg>

<svg width="32" height="32" xmlns="http://www.w3.org/2000/svg"><path d="M20.096 4.022A3.489 3.489 0 0 0 17.624 3a3.493 3.493 0 0 0-2.685 1.255A3.49 3.49 0 0 0 13.624 4c-.966 0-1.841.392-2.474 1.025a3.492 3.492 0 0 0-1.026 2.477v2.827a4.5 4.5 0 0 1 4.53-7.21 4.5 4.5 0 0 1 6.47 6.21V6.49c0-.964-.392-1.837-1.026-2.468h-.002zm1.028 6.72a5.5 5.5 0 1 0-6.736-8.69 5.5 5.5 0 0 0-4.264 9.69v1.236A6.5 6.5 0 0 1 14.128 1.02a6.5 6.5 0 0 1 6.996 10.959v-1.235zm7 12.758a8.5 8.5 0 0 1-8.5 8.5c-3.112 0-6.398-1.453-8.659-5.572-3.263-5.945-7.437-9.845-5.45-11.832 1.422-1.422 3.654-.058 5.61 1.77V7.509a2.5 2.5 0 0 1 4.157-1.881A2.499 2.499 0 0 1 17.624 4c1.39 0 2.5 1.12 2.5 2.503v7a2.485 2.485 0 0 1 1.5-.503c1.39 0 2.5 1.118 2.5 2.498v.013a2.495 2.495 0 0 1 1.5-.497c1.39 0 2.5 1.12 2.5 2.5V23.5zm-8.5 7.5c-3.76 0-5.99-2.051-7.752-5.017-3.912-6.582-6.714-9.594-5.627-10.687 1.111-1.117 3.821 1.302 5.88 3.502V7.505a1.499 1.499 0 1 1 3 0V18h1V6.49a1.501 1.501 0 0 1 3 0V17h1v-1.494a1.5 1.5 0 1 1 3 0V18h1v-.498a1.5 1.5 0 1 1 3 0V23.5a7.5 7.5 0 0 1-7.5 7.5z" fill="#929292" fill-rule="evenodd"/></svg>
